;Generated with Cura_SteamEngine 15.01
; Default start code
G28 ; Home extruder
G1 Z15 F100
M107 ; Turn off fan
G90 ; Absolute positioning
M82 ; Extruder in absolute mode
M190 S50
; Activate all used extruder
M104 T0 S210
G92 E0 ; Reset extruder position
; Wait for all used extruders to reach temperature
M109 T0 S210
;Layer count: 67
;LAYER:0
M107
G0 F9000 X103.591 Y111.710 Z0.300
;TYPE:SKIRT
G1 F1800 X103.823 Y111.503 E0.01551
G1 X104.568 Y111.008 E0.06014
G1 X104.822 Y110.838 E0.07539
G1 X105.795 Y110.401 E0.12860
G1 X109.864 Y108.900 E0.34497
G1 X125.149 Y108.900 E1.10755
G1 X129.206 Y110.395 E1.32326
G1 X129.976 Y110.741 E1.36537
G1 X130.252 Y110.879 E1.38077
G1 X131.008 Y111.381 E1.42604
G1 X131.260 Y111.558 E1.44140
G1 X131.868 Y112.126 E1.48292
G1 X132.112 Y112.344 E1.49924
G1 X132.761 Y113.186 E1.55228
G1 X132.938 Y113.439 E1.56768
G1 X133.343 Y114.194 E1.61043
G1 X133.484 Y114.453 E1.62514
G1 X133.795 Y115.365 E1.67321
G1 X133.892 Y115.657 E1.68856
G1 X134.068 Y116.720 E1.74232
G1 X134.094 Y117.043 E1.75848
G1 X134.093 Y118.126 E1.81251
G1 X133.933 Y119.089 E1.86122
G1 X133.877 Y119.396 E1.87679
G1 X133.485 Y120.537 E1.93698
G1 X133.052 Y121.347 E1.98280
G1 X132.922 Y121.605 E1.99721
G1 X132.137 Y122.620 E2.06123
G1 X131.234 Y123.466 E2.12296
G1 X130.195 Y124.159 E2.18527
G1 X129.210 Y124.602 E2.23915
G1 X125.150 Y126.100 E2.45506
G1 X109.865 Y126.100 E3.21763
G1 X105.804 Y124.603 E3.43356
G1 X104.826 Y124.163 E3.48706
G1 X103.789 Y123.474 E3.54918
G1 X102.878 Y122.624 E3.61134
G1 X102.120 Y121.639 E3.67335
G1 X101.529 Y120.540 E3.73560
G1 X101.127 Y119.362 E3.79770
G1 X100.922 Y118.138 E3.85962
G1 X100.918 Y116.891 E3.92183
G1 X101.121 Y115.657 E3.98422
G1 X101.520 Y114.480 E4.04622
G1 X102.105 Y113.382 E4.10829
G1 X102.863 Y112.392 E4.17050
G1 X103.591 Y111.710 E4.22027
G0 F9000 X103.861 Y112.005
G1 F1800 X104.068 Y111.821 E4.23409
G1 X104.789 Y111.341 E4.27730
G1 X105.017 Y111.189 E4.29097
G1 X105.947 Y110.771 E4.34184
G1 X109.936 Y109.300 E4.55395
G1 X125.078 Y109.300 E5.30939
G1 X129.055 Y110.766 E5.52085
G1 X129.804 Y111.102 E5.56181
G1 X130.051 Y111.225 E5.57557
G1 X130.782 Y111.712 E5.61940
G1 X131.008 Y111.870 E5.63315
G1 X131.613 Y112.434 E5.67442
G1 X131.818 Y112.618 E5.68816
G1 X132.439 Y113.423 E5.73888
G1 X132.596 Y113.649 E5.75261
G1 X132.979 Y114.363 E5.79304
G1 X133.117 Y114.615 E5.80737
G1 X133.416 Y115.492 E5.85360
G1 X133.503 Y115.753 E5.86732
G1 X133.671 Y116.769 E5.91870
G1 X133.694 Y117.059 E5.93321
G1 X133.693 Y118.093 E5.98480
G1 X133.539 Y119.021 E6.03173
G1 X133.489 Y119.295 E6.04563
G1 X133.117 Y120.377 E6.10271
G1 X132.707 Y121.141 E6.14597
G1 X132.582 Y121.391 E6.15991
G1 X131.840 Y122.350 E6.22041
G1 X130.985 Y123.151 E6.27886
G1 X130.000 Y123.808 E6.33793
G1 X129.059 Y124.232 E6.38942
G1 X125.078 Y125.700 E6.60111
G1 X109.936 Y125.700 E7.35654
G1 X105.956 Y124.233 E7.56816
G1 X105.020 Y123.811 E7.61939
G1 X104.038 Y123.159 E7.67820
G1 X103.175 Y122.354 E7.73708
G1 X102.457 Y121.421 E7.79581
G1 X101.897 Y120.380 E7.85478
G1 X101.516 Y119.264 E7.91362
G1 X101.322 Y118.104 E7.97229
G1 X101.318 Y116.923 E8.03121
G1 X101.510 Y115.755 E8.09027
G1 X101.888 Y114.639 E8.14905
G1 X102.442 Y113.599 E8.20784
G1 X103.160 Y112.661 E8.26677
G1 X103.861 Y112.005 E8.31467
G1 F2400 E4.31467
G0 F9000 X106.398 Y114.835
;TYPE:WALL-INNER
G1 F2400 E8.31467
G1 F1800 X106.864 Y114.525 E8.34259
G1 X107.379 Y114.293 E8.37078
G1 X110.615 Y113.100 E8.54284
G1 X124.400 Y113.100 E9.23058
G1 X127.619 Y114.286 E9.40173
G1 X128.147 Y114.523 E9.43060
G1 X128.614 Y114.834 E9.45859
G1 X129.025 Y115.218 E9.48666
G1 X129.356 Y115.648 E9.51373
G1 X129.624 Y116.147 E9.54199
G1 X129.803 Y116.671 E9.56961
G1 X129.894 Y117.220 E9.59738
G1 X129.893 Y117.777 E9.62517
G1 X129.800 Y118.338 E9.65354
G1 X129.625 Y118.847 E9.68039
G1 X129.352 Y119.357 E9.70925
G1 X129.023 Y119.782 E9.73606
G1 X128.615 Y120.165 E9.76398
G1 X128.153 Y120.473 E9.79168
G1 X127.625 Y120.710 E9.82056
G1 X124.399 Y121.900 E9.99210
G1 X110.615 Y121.900 E10.67979
G1 X107.390 Y120.711 E10.85127
G1 X106.866 Y120.475 E10.87994
G1 X106.400 Y120.166 E10.90784
G1 X105.994 Y119.786 E10.93558
G1 X105.655 Y119.347 E10.96326
G1 X105.393 Y118.860 E10.99085
G1 X105.213 Y118.331 E11.01872
G1 X105.121 Y117.781 E11.04654
G1 X105.119 Y117.226 E11.07423
G1 X105.209 Y116.679 E11.10189
G1 X105.386 Y116.156 E11.12944
G1 X105.651 Y115.659 E11.15754
G1 X105.987 Y115.220 E11.18512
G1 X106.398 Y114.835 E11.21321
G0 F9000 X107.198 Y115.728
G1 F1800 X106.917 Y115.975 E11.23188
G1 X106.682 Y116.267 E11.25058
G1 X106.500 Y116.592 E11.26916
G1 X106.376 Y116.945 E11.28783
G1 X106.313 Y117.312 E11.30641
G1 X106.312 Y117.685 E11.32501
G1 X106.376 Y118.055 E11.34375
G1 X106.500 Y118.407 E11.36237
G1 X106.682 Y118.732 E11.38095
G1 X106.917 Y119.024 E11.39965
G1 X107.198 Y119.271 E11.41832
G1 X107.516 Y119.466 E11.43693
G1 X107.861 Y119.604 E11.45546
G1 X108.227 Y119.684 E11.47415
G1 X108.599 Y119.700 E11.49273
G1 X108.971 Y119.653 E11.51144
G1 X109.329 Y119.543 E11.53012
G1 X109.662 Y119.375 E11.54873
G1 X109.962 Y119.153 E11.56735
G1 X110.220 Y118.883 E11.58598
G1 X110.430 Y118.574 E11.60462
G1 X110.584 Y118.233 E11.62329
G1 X110.677 Y117.872 E11.64189
G1 X110.709 Y117.499 E11.66056
G1 X110.678 Y117.128 E11.67914
G1 X110.584 Y116.766 E11.69780
G1 X110.430 Y116.425 E11.71646
G1 X110.220 Y116.116 E11.73510
G1 X109.962 Y115.846 E11.75373
G1 X109.662 Y115.624 E11.77235
G1 X109.329 Y115.456 E11.79096
G1 X108.971 Y115.346 E11.80965
G1 X108.601 Y115.299 E11.82825
G1 X108.227 Y115.315 E11.84693
G1 X107.861 Y115.395 E11.86562
G1 X107.516 Y115.533 E11.88416
G1 X107.198 Y115.728 E11.90277
G0 F9000 X108.971 Y115.348
G0 X124.313 Y117.312
G1 F1800 X124.312 Y117.685 E11.92138
G1 X124.376 Y118.055 E11.94011
G1 X124.500 Y118.407 E11.95873
G1 X124.682 Y118.732 E11.97731
G1 X124.917 Y119.024 E11.99601
G1 X125.198 Y119.271 E12.01468
G1 X125.516 Y119.466 E12.03329
G1 X125.861 Y119.604 E12.05183
G1 X126.227 Y119.684 E12.07052
G1 X126.599 Y119.700 E12.08910
G1 X126.971 Y119.653 E12.10780
G1 X127.329 Y119.543 E12.12649
G1 X127.662 Y119.375 E12.14509
G1 X127.962 Y119.153 E12.16371
G1 X128.220 Y118.883 E12.18235
G1 X128.430 Y118.574 E12.20099
G1 X128.584 Y118.233 E12.21965
G1 X128.677 Y117.872 E12.23825
G1 X128.709 Y117.499 E12.25693
G1 X128.678 Y117.128 E12.27550
G1 X128.584 Y116.766 E12.29416
G1 X128.430 Y116.425 E12.31283
G1 X128.220 Y116.116 E12.33147
G1 X127.962 Y115.846 E12.35010
G1 X127.662 Y115.624 E12.36872
G1 X127.329 Y115.456 E12.38733
G1 X126.971 Y115.346 E12.40601
G1 X126.601 Y115.299 E12.42462
G1 X126.227 Y115.315 E12.44329
G1 X125.861 Y115.395 E12.46199
G1 X125.516 Y115.533 E12.48052
G1 X125.198 Y115.728 E12.49913
G1 X124.917 Y115.975 E12.51780
G1 X124.682 Y116.267 E12.53650
G1 X124.500 Y116.592 E12.55508
G1 X124.376 Y116.945 E12.57375
G1 X124.313 Y117.312 E12.59233
G0 F9000 X124.713 Y117.347
;TYPE:WALL-OUTER
G1 F1800 X124.712 Y117.651 E12.60749
G1 X124.765 Y117.954 E12.62284
G1 X124.866 Y118.242 E12.63807
G1 X125.015 Y118.507 E12.65323
G1 X125.207 Y118.746 E12.66853
G1 X125.437 Y118.948 E12.68380
G1 X125.697 Y119.107 E12.69900
G1 X125.979 Y119.221 E12.71418
G1 X126.278 Y119.286 E12.72945
G1 X126.582 Y119.299 E12.74463
G1 X126.886 Y119.260 E12.75992
G1 X127.179 Y119.170 E12.77521
G1 X127.451 Y119.033 E12.79040
G1 X127.697 Y118.852 E12.80564
G1 X127.908 Y118.631 E12.82088
G1 X128.079 Y118.378 E12.83612
G1 X128.205 Y118.100 E12.85135
G1 X128.282 Y117.804 E12.86661
G1 X128.308 Y117.500 E12.88183
G1 X128.282 Y117.195 E12.89710
G1 X128.205 Y116.899 E12.91236
G1 X128.079 Y116.621 E12.92759
G1 X127.908 Y116.368 E12.94282
G1 X127.697 Y116.147 E12.95806
G1 X127.451 Y115.966 E12.97330
G1 X127.179 Y115.829 E12.98850
G1 X126.886 Y115.739 E13.00379
G1 X126.584 Y115.700 E13.01898
G1 X126.278 Y115.713 E13.03426
G1 X125.979 Y115.778 E13.04953
G1 X125.697 Y115.892 E13.06470
G1 X125.437 Y116.051 E13.07991
G1 X125.207 Y116.253 E13.09518
G1 X125.015 Y116.492 E13.11047
G1 X124.866 Y116.757 E13.12564
G1 X124.765 Y117.046 E13.14091
G1 X124.713 Y117.347 E13.15615
G0 F9000 X124.418 Y117.298
G0 X124.918 Y115.976
G0 X127.654 Y114.192
G0 X127.776 Y113.918
G1 F1800 X128.339 Y114.171 E13.18695
G1 X128.863 Y114.520 E13.21836
G1 X129.323 Y114.949 E13.24974
G1 X129.695 Y115.432 E13.28015
G1 X129.993 Y115.989 E13.31167
G1 X130.192 Y116.573 E13.34245
G1 X130.293 Y117.178 E13.37305
G1 X130.293 Y117.812 E13.40468
G1 X130.190 Y118.433 E13.43609
G1 X129.992 Y119.011 E13.46657
G1 X129.688 Y119.576 E13.49858
G1 X129.320 Y120.051 E13.52855
G1 X128.862 Y120.481 E13.55990
G1 X128.348 Y120.824 E13.59073
G1 X127.778 Y121.080 E13.62190
G1 X124.471 Y122.300 E13.79776
G1 X110.543 Y122.300 E14.49263
G1 X107.237 Y121.081 E14.66842
G1 X106.675 Y120.828 E14.69917
G1 X106.148 Y120.478 E14.73073
G1 X105.698 Y120.059 E14.76141
G1 X105.321 Y119.568 E14.79229
G1 X105.024 Y119.016 E14.82356
G1 X104.823 Y118.428 E14.85456
G1 X104.721 Y117.818 E14.88542
G1 X104.719 Y117.192 E14.91665
G1 X104.820 Y116.578 E14.94770
G1 X105.017 Y115.999 E14.97821
G1 X105.313 Y115.443 E15.00963
G1 X105.692 Y114.949 E15.04070
G1 X106.149 Y114.521 E15.07193
G1 X106.673 Y114.172 E15.10334
G1 X107.227 Y113.923 E15.13365
G1 X110.543 Y112.700 E15.30998
G1 X124.471 Y112.700 E16.00485
G1 X127.776 Y113.918 E16.18057
G0 F9000 X127.654 Y114.192
G0 X110.573 Y117.121
G0 X110.282 Y117.195
G1 F1800 X110.205 Y116.899 E16.19583
G1 X110.079 Y116.621 E16.21106
G1 X109.908 Y116.368 E16.22630
G1 X109.697 Y116.147 E16.24154
G1 X109.451 Y115.966 E16.25678
G1 X109.179 Y115.829 E16.27197
G1 X108.886 Y115.739 E16.28726
G1 X108.584 Y115.700 E16.30245
G1 X108.278 Y115.713 E16.31774
G1 X107.979 Y115.778 E16.33300
G1 X107.697 Y115.892 E16.34818
G1 X107.437 Y116.051 E16.36338
G1 X107.207 Y116.253 E16.37865
G1 X107.015 Y116.492 E16.39395
G1 X106.866 Y116.757 E16.40911
G1 X106.765 Y117.046 E16.42439
G1 X106.713 Y117.347 E16.43963
G1 X106.712 Y117.651 E16.45479
G1 X106.765 Y117.954 E16.47014
G1 X106.866 Y118.242 E16.48537
G1 X107.015 Y118.507 E16.50053
G1 X107.207 Y118.746 E16.51583
G1 X107.437 Y118.948 E16.53110
G1 X107.697 Y119.107 E16.54631
G1 X107.979 Y119.221 E16.56148
G1 X108.278 Y119.286 E16.57675
G1 X108.582 Y119.299 E16.59193
G1 X108.886 Y119.260 E16.60722
G1 X109.179 Y119.170 E16.62251
G1 X109.451 Y119.033 E16.63770
G1 X109.697 Y118.852 E16.65294
G1 X109.908 Y118.631 E16.66819
G1 X110.079 Y118.378 E16.68342
G1 X110.205 Y118.100 E16.69865
G1 X110.282 Y117.804 E16.71391
G1 X110.308 Y117.500 E16.72913
G1 X110.282 Y117.195 E16.74440
G0 F9000 X110.836 Y117.342
;TYPE:SKIN
G1 F1800 X115.254 Y121.759 E17.05608
G0 F9000 X115.819 Y121.759
G1 F1800 X110.663 Y116.603 E17.41986
G0 F9000 X110.815 Y117.886
G1 F1800 X114.688 Y121.759 E17.69312
G0 F9000 X114.122 Y121.759
G1 F1800 X110.692 Y118.329 E17.93513
G0 F9000 X110.505 Y118.708
G1 F1800 X113.557 Y121.759 E18.15043
G0 F9000 X112.991 Y121.759
G1 F1800 X110.267 Y119.035 E18.34262
G0 F9000 X109.980 Y119.314
G1 F1800 X112.425 Y121.759 E18.51513
G0 F9000 X111.860 Y121.759
G1 F1800 X109.641 Y119.541 E18.67166
G0 F9000 X109.248 Y119.713
G1 F1800 X111.294 Y121.759 E18.81601
G0 F9000 X110.728 Y121.759
G1 F1800 X108.786 Y119.817 E18.95303
G0 F9000 X108.226 Y119.822
G1 F1800 X109.884 Y121.480 E19.07001
G0 F9000 X108.987 Y121.150
G1 F1800 X107.391 Y119.554 E19.18262
G0 F9000 X107.159 Y120.453
G1 F1800 X105.537 Y118.830 E19.29709
G0 F9000 X105.305 Y118.033
G1 F1800 X108.091 Y120.819 E19.49366
G0 F9000 X106.313 Y117.685
G0 X106.918 Y115.976
G0 X108.613 Y113.987
G1 F1800 X116.385 Y121.759 E20.04202
G0 F9000 X116.951 Y121.759
G1 F1800 X109.025 Y113.834 E20.60121
G0 F9000 X109.439 Y113.682
G1 F1800 X117.516 Y121.759 E21.17108
G0 F9000 X118.082 Y121.759
G1 F1800 X109.853 Y113.530 E21.75168
G0 F9000 X110.266 Y113.377
G1 F1800 X118.648 Y121.759 E22.34308
G0 F9000 X119.213 Y121.759
G1 F1800 X110.694 Y113.240 E22.94414
G0 F9000 X111.260 Y113.240
G1 F1800 X119.779 Y121.759 E23.54520
G0 F9000 X120.345 Y121.759
G1 F1800 X111.826 Y113.240 E24.14626
G0 F9000 X112.391 Y113.240
G1 F1800 X120.911 Y121.759 E24.74736
G0 F9000 X121.476 Y121.759
G1 F1800 X112.957 Y113.240 E25.34842
G0 F9000 X113.523 Y113.240
G1 F1800 X122.042 Y121.759 E25.94948
G0 F9000 X122.608 Y121.759
G1 F1800 X114.088 Y113.240 E26.55058
G0 F9000 X114.654 Y113.240
G1 F1800 X123.173 Y121.759 E27.15164
G0 F9000 X123.739 Y121.759
G1 F1800 X115.220 Y113.240 E27.75270
G0 F9000 X115.785 Y113.240
G1 F1800 X124.305 Y121.759 E28.35380
G0 F9000 X124.737 Y121.625
G1 F1800 X116.351 Y113.240 E28.94544
G0 F9000 X116.917 Y113.240
G1 F1800 X125.150 Y121.473 E29.52632
G0 F9000 X125.563 Y121.321
G1 F1800 X117.482 Y113.240 E30.09648
G0 F9000 X118.048 Y113.240
G1 F1800 X125.976 Y121.168 E30.65584
G0 F9000 X126.389 Y121.015
G1 F1800 X118.614 Y113.240 E31.20441
G0 F9000 X119.180 Y113.240
G1 F1800 X124.353 Y118.413 E31.56940
G0 F9000 X124.171 Y117.666
G1 F1800 X119.745 Y113.240 E31.88167
G0 F9000 X109.392 Y115.331
G1 F1800 X108.199 Y114.139 E31.96581
G0 F9000 X107.786 Y114.291
G1 F1800 X108.658 Y115.164 E32.02737
G0 F9000 X108.122 Y115.193
G1 F1800 X107.375 Y114.446 E32.08008
G0 F9000 X106.985 Y114.622
G1 F1800 X107.678 Y115.315 E32.12897
G0 F9000 X107.298 Y115.500
G1 F1800 X106.640 Y114.842 E32.17540
G0 F9000 X106.326 Y115.094
G1 F1800 X106.971 Y115.739 E32.22090
G0 F9000 X106.695 Y116.029
G1 F1800 X106.042 Y115.376 E32.26698
G0 F9000 X105.796 Y115.696
G1 F1800 X106.466 Y116.365 E32.31421
G0 F9000 X106.293 Y116.758
G1 F1800 X105.594 Y116.059 E32.36353
G0 F9000 X105.429 Y116.460
G1 F1800 X106.186 Y117.217 E32.41694
G0 F9000 X106.186 Y117.782
G1 F1800 X105.312 Y116.908 E32.47861
G0 F9000 X105.259 Y117.422
G1 F1800 X106.459 Y118.621 E32.56324
G0 F9000 X108.228 Y119.683
G0 X109.961 Y119.153
G0 X110.708 Y117.499
G0 X120.311 Y113.240
G1 F1800 X124.201 Y117.130 E32.83770
G0 F9000 X124.319 Y116.683
G1 F1800 X120.877 Y113.240 E33.08059
G0 F9000 X121.442 Y113.240
G1 F1800 X124.503 Y116.300 E33.29652
G0 F9000 X124.740 Y115.972
G1 F1800 X122.008 Y113.240 E33.48928
G0 F9000 X122.574 Y113.240
G1 F1800 X125.025 Y115.691 E33.66221
G0 F9000 X125.361 Y115.462
G1 F1800 X123.139 Y113.240 E33.81898
G0 F9000 X123.705 Y113.240
G1 F1800 X125.751 Y115.286 E33.96334
G0 F9000 X126.207 Y115.176
G1 F1800 X124.271 Y113.240 E34.09994
G0 F9000 X125.106 Y113.510
G1 F1800 X126.776 Y115.179 E34.21773
G0 F9000 X127.598 Y115.436
G1 F1800 X126.002 Y113.840 E34.33033
G0 F9000 X126.898 Y114.170
G1 F1800 X129.713 Y116.985 E34.52895
G0 F9000 X129.753 Y117.591
G1 F1800 X128.578 Y116.415 E34.61189
G0 F9000 X128.826 Y117.229
G1 F1800 X129.697 Y118.100 E34.67334
G0 F9000 X129.579 Y118.548
G1 F1800 X128.823 Y117.792 E34.72668
G0 F9000 X128.721 Y118.256
G1 F1800 X129.412 Y118.947 E34.77543
G0 F9000 X129.210 Y119.310
G1 F1800 X128.547 Y118.647 E34.82221
G0 F9000 X128.317 Y118.983
G1 F1800 X128.963 Y119.629 E34.86779
G0 F9000 X128.679 Y119.911
G1 F1800 X128.039 Y119.271 E34.91295
G0 F9000 X127.709 Y119.507
G1 F1800 X128.365 Y120.162 E34.95919
G0 F9000 X128.017 Y120.380
G1 F1800 X127.327 Y119.690 E35.00788
G0 F9000 X126.876 Y119.805
G1 F1800 X127.627 Y120.556 E35.06086
G0 F9000 X127.216 Y120.710
G1 F1800 X126.334 Y119.829 E35.12306
G0 F9000 X125.584 Y119.644
G1 F1800 X126.803 Y120.863 E35.20907
G0 F9000 X128.583 Y118.233
G0 X129.491 Y116.198
G1 F1800 X127.825 Y114.531 E35.32665
;LAYER:1
M106 S63
G0 F9000 X127.613 Y114.284 Z0.500
;TYPE:WALL-INNER
G1 F1920 X128.135 Y114.518 E35.34567
G1 X128.597 Y114.822 E35.36407
G1 X129.008 Y115.201 E35.38266
G1 X129.359 Y115.653 E35.40170
G1 X129.625 Y116.149 E35.42042
G1 X129.803 Y116.671 E35.43876
G1 X129.894 Y117.221 E35.45730
G1 X129.893 Y117.777 E35.47579
G1 X129.802 Y118.325 E35.49427
G1 X129.622 Y118.855 E35.51289
G1 X129.352 Y119.356 E35.53182
G1 X129.023 Y119.782 E35.54972
G1 X128.616 Y120.164 E35.56828
G1 X128.154 Y120.472 E35.58675
G1 X127.627 Y120.709 E35.60597
G1 X124.399 Y121.900 E35.72041
G1 X110.615 Y121.900 E36.17887
G1 X107.390 Y120.711 E36.29319
G1 X106.868 Y120.476 E36.31223
G1 X106.402 Y120.167 E36.33083
G1 X105.998 Y119.791 E36.34918
G1 X105.657 Y119.349 E36.36775
G1 X105.395 Y118.863 E36.38611
